storage/app/icons/phosphoricons/regular/folder-minus.svg

<svg xmlns="http://www.w3.org/2000/svg" fill="currentColor" viewBox="0 0 256 256"><path d="M216 72h-84.69L104 44.69A15.86 15.86 0 0 0 92.69 40H40a16 16 0 0 0-16 16v144.62A15.4 15.4 0 0 0 39.38 216h177.51A15.13 15.13 0 0 0 232 200.89V88a16 16 0 0 0-16-16M92.69 56l16 16H40V56ZM216 200H40V88h176Zm-112-64h48a8 8 0 0 1 0 16h-48a8 8 0 0 1 0-16"/></svg>

<svg xmlns="http://www.w3.org/2000/svg" viewBox="0 0 256 256" fill="currentColor"><path d="M216,72H131.31L104,44.69A15.86,15.86,0,0,0,92.69,40H40A16,16,0,0,0,24,56V200.62A15.4,15.4,0,0,0,39.38,216H216.89A15.13,15.13,0,0,0,232,200.89V88A16,16,0,0,0,216,72ZM92.69,56l16,16H40V56ZM216,200H40V88H216ZM104,136h48a8,8,0,0,1,0,16H104a8,8,0,0,1,0-16Z"/></svg>
